polaris-icons/icons/new-icons/IllustrationMajor.svg

<svg width="20" height="20" viewBox="0 0 20 20" fill="none" xmlns="http://www.w3.org/2000/svg">
<path fill-rule="evenodd" clip-rule="evenodd" d="M16.1554 3.84428C15.3841 3.07302 14.1479 3.02893 13.3237 3.7433L6.96991 9.25011C4.91269 9.26628 3.25 10.939 3.25 13V16C3.25 16.4142 3.58579 16.75 4 16.75H7C9.06111 16.75 10.7339 15.0872 10.7499 13.0298L16.2564 6.67588C16.9707 5.85164 16.9266 4.61552 16.1554 3.84428ZM10.3137 11.2428L15.1228 5.69351C15.3218 5.46397 15.3095 5.11972 15.0947 4.90494C14.8799 4.69015 14.5356 4.67787 14.3061 4.87682L8.75699 9.68622C9.41845 10.0377 9.96218 10.5814 10.3137 11.2428ZM7 10.75C8.24264 10.75 9.25 11.7574 9.25 13C9.25 14.2426 8.24264 15.25 7 15.25H4.75V13C4.75 11.7574 5.75736 10.75 7 10.75Z" fill="#4A4A4A"/>
</svg>

<svg viewBox="0 0 20 20" xmlns="http://www.w3.org/2000/svg"><path fill-rule="evenodd" d="M16.155 3.844a2.079 2.079 0 0 0-2.831-.1l-6.354 5.506a3.75 3.75 0 0 0-3.72 3.75v3c0 .414.336.75.75.75h3a3.75 3.75 0 0 0 3.75-3.72l5.506-6.354c.715-.824.67-2.06-.1-2.832Zm-5.841 7.399 4.809-5.55a.579.579 0 0 0-.817-.816l-5.549 4.81a3.768 3.768 0 0 1 1.557 1.556Zm-3.314-.493a2.25 2.25 0 0 1 0 4.5h-2.25v-2.25a2.25 2.25 0 0 1 2.25-2.25Z" fill="#5C5F62"/></svg>
